;FLAVOR:Makerbot
;TIME:7638
;MINX:-53.8
;MINY:-13.8
;MINZ:0.3
;MAXX:53.8
;MAXY:13.8
;MAXZ:99.95
;Generated with Cura_SteamEngine 4.7.0
T0
M190 S60
M104 S210
M104 S210
M116
M82 ;absolute extrusion mode
; -- START GCODE --
M136 ; start build
M73 P0
G90 ; absolute coordinates
;
; set temperatures and assert Vref
M7 S{print_bed_temperature}
M6 S{print_temperature} T0
M6 S{print_temperature2) T1
G130 X118 Y118 A118 B118 ; set stepper motor Vref to defaults
; let the Z stepper vref stay at eeprom level (probably 40)
;
; home and recall eeprom home position
T0 ; home on the right nozzle
G28 X Y Z ; home all axes at homing speed
G92 X0 Y0 Z0 A0 B0 ; set all coords to 0 for now
G1 Z5 F500 ; move Z 5mm away so we can carefully hit the limit switch
G161 Z F100 ; home Z slowly
M132 X Y Z ; recall stored home offsets for XYZ axes
;
; wait for heat up
G1 X110 Y-72 Z30 F3300 ; move to waiting position
M116 ; wait for temps
;
; purge and wipe
G92 E0 ; set current extruder position as 0 so that E15 below makes sense
G1 X110 Y-70 Z0.2 F2400.0 ; move to just on the bed
G1 X110 Y70 E15 F1200.000 ; extrude a line of filament along the right edge of the bed
G92 E0 ; set E to 0 again because the slicer's next extrusion is relative to this 0
;
; Sliced at: {day} {date} {time}
; Basic settings: Layer height: {layer_height} Walls: {wall_thickness} Fill: {fill_density}
; Print time: 02:07:19
; Filament used: [16.4, 0.0]m [48.927629374999995, 0.0]g
; Filament cost: [0.0, 0.0]
; -- end of START GCODE --
G92 E0
G92 E0
G1 F1500 E-6.5
;LAYER_COUNT:287
;LAYER:0
M127 T0
G0 F3600 X50 Y13.8 Z0.3
;TYPE:SKIRT
G1 F1500 E0
G1 F1800 X-50 Y13.8 E4.73957
G1 X-50.55 Y13.76 E4.76571
G1 X-51.088 Y13.641 E4.79182
G1 X-51.603 Y13.445 E4.81794
G1 X-52.084 Y13.177 E4.84403
G1 X-52.522 Y12.843 E4.87014
G1 X-52.906 Y12.448 E4.89625
G1 X-53.23 Y12.002 E4.92238
G1 X-53.485 Y11.514 E4.94848
G1 X-53.668 Y10.994 E4.9746
G1 X-53.773 Y10.453 E5.00072
G1 X-53.8 Y10 E5.02223
G1 X-53.8 Y-10 E5.97014
G1 X-53.76 Y-10.55 E5.99628
G1 X-53.641 Y-11.088 E6.0224
G1 X-53.445 Y-11.603 E6.04851
G1 X-53.177 Y-12.084 E6.07461
G1 X-52.843 Y-12.522 E6.10072
G1 X-52.448 Y-12.906 E6.12683
G1 X-52.002 Y-13.23 E6.15295
G1 X-51.514 Y-13.485 E6.17905
G1 X-50.994 Y-13.668 E6.20518
G1 X-50.453 Y-13.773 E6.2313
G1 X-50 Y-13.8 E6.25281
G1 X50 Y-13.8 E10.99237
G1 X50.55 Y-13.76 E11.01851
G1 X51.088 Y-13.641 E11.04463
G1 X51.603 Y-13.445 E11.07074
G1 X52.084 Y-13.177 E11.09684
G1 X52.522 Y-12.843 E11.12295
G1 X52.906 Y-12.448 E11.14906
G1 X53.23 Y-12.002 E11.17518
G1 X53.485 Y-11.514 E11.20128
G1 X53.668 Y-10.994 E11.22741
G1 X53.773 Y-10.453 E11.25353
G1 X53.8 Y-10 E11.27504
G1 X53.8 Y10 E12.22295
G1 X53.76 Y10.55 E12.24909
G1 X53.641 Y11.088 E12.2752
G1 X53.445 Y11.603 E12.30132
G1 X53.177 Y12.084 E12.32741
G1 X52.843 Y12.522 E12.35352
G1 X52.448 Y12.906 E12.37963
G1 X52.002 Y13.23 E12.40576
G1 X51.514 Y13.485 E12.43186
G1 X50.994 Y13.668 E12.45798
G1 X50.453 Y13.773 E12.4841
G1 X50 Y13.8 E12.50561
G0 F3600 X50 Y13.4
G1 F1800 X-50 Y13.4 E17.24518
G1 X-50.52 Y13.36 E17.2699
G1 X-51.027 Y13.241 E17.29458
G1 X-51.51 Y13.046 E17.31927
G1 X-51.958 Y12.78 E17.34396
G1 X-52.36 Y12.448 E17.36867
G1 X-52.706 Y12.058 E17.39338
G1 X-52.989 Y11.62 E17.4181
G1 X-53.202 Y11.145 E17.44277
G1 X-53.339 Y10.642 E17.46748
G1 X-53.4 Y10 E17.49805
G1 X-53.4 Y-10 E18.44596
G1 X-53.36 Y-10.52 E18.47068
G1 X-53.241 Y-11.027 E18.49536
G1 X-53.046 Y-11.51 E18.52005
G1 X-52.78 Y-11.958 E18.54474
G1 X-52.448 Y-12.36 E18.56945
G1 X-52.058 Y-12.706 E18.59416
G1 X-51.62 Y-12.989 E18.61888
G1 X-51.145 Y-13.202 E18.64355
G1 X-50.642 Y-13.339 E18.66826
G1 X-50 Y-13.4 E18.69882
G1 X50 Y-13.4 E23.43839
G1 X50.52 Y-13.36 E23.46311
G1 X51.027 Y-13.241 E23.4878
G1 X51.51 Y-13.046 E23.51248
G1 X51.958 Y-12.78 E23.53718
G1 X52.36 Y-12.448 E23.56189
G1 X52.706 Y-12.058 E23.5866
G1 X52.989 Y-11.62 E23.61131
G1 X53.202 Y-11.145 E23.63599
G1 X53.339 Y-10.642 E23.66069
G1 X53.4 Y-10 E23.69126
G1 X53.4 Y10 E24.63917
G1 X53.36 Y10.52 E24.66389
G1 X53.241 Y11.027 E24.68857
G1 X53.046 Y11.51 E24.71326
G1 X52.78 Y11.958 E24.73796
G1 X52.448 Y12.36 E24.76267
G1 X52.058 Y12.706 E24.78738
G1 X51.62 Y12.989 E24.81209
G1 X51.145 Y13.202 E24.83677
G1 X50.642 Y13.339 E24.86147
G1 X50 Y13.4 E24.89204
G0 F3600 X50 Y13
G1 F1800 X-50 Y13 E29.63161
G1 X-50.488 Y12.96 E29.65481
G1 X-50.963 Y12.841 E29.67802
G1 X-51.412 Y12.647 E29.70121
G1 X-51.824 Y12.382 E29.72442
G1 X-52.187 Y12.054 E29.74761
G1 X-52.492 Y11.671 E29.77082
G1 X-52.73 Y11.243 E29.79403
G1 X-52.896 Y10.783 E29.8172
G1 X-53 Y10 E29.85464
G1 X-53 Y-10 E30.80256
G1 X-52.96 Y-10.488 E30.82576
G1 X-52.841 Y-10.963 E30.84897
G1 X-52.647 Y-11.412 E30.87215
G1 X-52.382 Y-11.824 E30.89537
G1 X-52.054 Y-12.187 E30.91856
G1 X-51.671 Y-12.492 E30.94176
G1 X-51.243 Y-12.73 E30.96497
G1 X-50.783 Y-12.896 E30.98815
G1 X-50 Y-13 E31.02559
G1 X50 Y-13 E35.76516
G1 X50.488 Y-12.96 E35.78836
G1 X50.963 Y-12.841 E35.81157
G1 X51.412 Y-12.647 E35.83476
G1 X51.824 Y-12.382 E35.85797
G1 X52.187 Y-12.054 E35.88116
G1 X52.492 Y-11.671 E35.90437
G1 X52.73 Y-11.243 E35.92758
G1 X52.896 Y-10.783 E35.95076
G1 X53 Y-10 E35.98819
G1 X53 Y10 E36.93611
G1 X52.96 Y10.488 E36.95931
G1 X52.841 Y10.963 E36.98252
G1 X52.647 Y11.412 E37.0057
G1 X52.382 Y11.824 E37.02892
G1 X52.054 Y12.187 E37.05211
G1 X51.671 Y12.492 E37.07531
G1 X51.243 Y12.73 E37.09852
G1 X50.783 Y12.896 E37.1217
G1 X50 Y13 E37.15914
G0 F3600 X50 Y12.6
G1 F1800 X-50 Y12.6 E41.89871
G1 X-50.454 Y12.56 E41.92031
G1 X-50.894 Y12.442 E41.9419
G1 X-51.306 Y12.248 E41.96348
G1 X-51.679 Y11.985 E41.98512
G1 X-52 Y11.662 E42.0067
G1 X-52.259 Y11.287 E42.0283
G1 X-52.449 Y10.873 E42.04989
G1 X-52.564 Y10.432 E42.07149
G1 X-52.6 Y10 E42.09203
G1 X-52.6 Y-10 E43.03995
G1 X-52.56 Y-10.454 E43.06155
G1 X-52.442 Y-10.894 E43.08314
G1 X-52.248 Y-11.306 E43.10472
G1 X-51.985 Y-11.679 E43.12636
G1 X-51.662 Y-12 E43.14794
G1 X-51.287 Y-12.259 E43.16954
G1 X-50.873 Y-12.449 E43.19113
G1 X-50.432 Y-12.564 E43.21273
G1 X-50 Y-12.6 E43.23327
G1 X50 Y-12.6 E47.97284
G1 X50.454 Y-12.56 E47.99445
G1 X50.894 Y-12.442 E48.01604
G1 X51.306 Y-12.248 E48.03762
G1 X51.679 Y-11.985 E48.05925
G1 X52 Y-11.662 E48.08083
G1 X52.259 Y-11.287 E48.10243
G1 X52.449 Y-10.873 E48.12402
G1 X52.564 Y-10.432 E48.14562
G1 X52.6 Y-10 E48.16617
G1 X52.6 Y10 E49.11408
G1 X52.56 Y10.454 E49.13569
G1 X52.442 Y10.894 E49.15728
G1 X52.248 Y11.306 E49.17886
G1 X51.985 Y11.679 E49.20049
G1 X51.662 Y12 E49.22207
G1 X51.287 Y12.259 E49.24367
G1 X50.873 Y12.449 E49.26526
G1 X50.432 Y12.564 E49.28686
G1 X50 Y12.6 E49.30741
G0 F3600 X50 Y12.2
G1 F1800 X-50 Y12.2 E54.04698
G1 X-50.417 Y12.16 E54.06683
G1 X-50.819 Y12.042 E54.08669
G1 X-51.191 Y11.849 E54.10655
G1 X-51.52 Y11.59 E54.1264
G1 X-51.794 Y11.273 E54.14626
G1 X-52.003 Y10.91 E54.16611
G1 X-52.139 Y10.513 E54.186
G1 X-52.2 Y10 E54.21049
G1 X-52.2 Y-10 E55.1584
G1 X-52.16 Y-10.417 E55.17825
G1 X-52.042 Y-10.819 E55.19811
G1 X-51.849 Y-11.191 E55.21797
G1 X-51.59 Y-11.52 E55.23782
G1 X-51.273 Y-11.794 E55.25768
G1 X-50.91 Y-12.003 E55.27753
G1 X-50.513 Y-12.139 E55.29742
G1 X-50 Y-12.2 E55.32191
G1 X50 Y-12.2 E60.06147
G1 X50.417 Y-12.16 E60.08133
G1 X50.819 Y-12.042 E60.10119
G1 X51.191 Y-11.849 E60.12105
G1 X51.52 Y-11.59 E60.14089
G1 X51.794 Y-11.273 E60.16075
G1 X52.003 Y-10.91 E60.18061
G1 X52.139 Y-10.513 E60.2005
G1 X52.2 Y-10 E60.22498
G1 X52.2 Y10 E61.17289
G1 X52.16 Y10.417 E61.19275
G1 X52.042 Y10.819 E61.21261
G1 X51.849 Y11.191 E61.23247
G1 X51.59 Y11.52 E61.25231
G1 X51.273 Y11.794 E61.27217
G1 X50.91 Y12.003 E61.29203
G1 X50.513 Y12.139 E61.31192
G1 X50 Y12.2 E61.3364
G0 F3600 X50 Y11.8
G1 F1800 X-50 Y11.8 E66.07597
G1 X-50.377 Y11.76 E66.09394
G1 X-50.737 Y11.642 E66.11189
G1 X-51.064 Y11.452 E66.12982
G1 X-51.345 Y11.197 E66.1478
G1 X-51.565 Y10.888 E66.16578
G1 X-51.717 Y10.541 E66.18374
G1 X-51.8 Y10 E66.20968
G1 X-51.8 Y-10 E67.15759
G1 X-51.76 Y-10.377 E67.17556
G1 X-51.642 Y-10.737 E67.19352
G1 X-51.452 Y-11.064 E67.21144
G1 X-51.197 Y-11.345 E67.22942
G1 X-50.888 Y-11.565 E67.2474
G1 X-50.541 Y-11.717 E67.26536
G1 X-50 Y-11.8 E67.2913
G1 X50 Y-11.8 E72.03087
G1 X50.377 Y-11.76 E72.04884
G1 X50.737 Y-11.642 E72.06679
G1 X51.064 Y-11.452 E72.08472
G1 X51.345 Y-11.197 E72.1027
G1 X51.565 Y-10.888 E72.12068
G1 X51.717 Y-10.541 E72.13863
G1 X51.8 Y-10 E72.16458
G1 X51.8 Y10 E73.11249
G1 X51.76 Y10.377 E73.13046
G1 X51.642 Y10.737 E73.14841
G1 X51.452 Y11.064 E73.16634
G1 X51.197 Y11.345 E73.18432
G1 X50.888 Y11.565 E73.2023
G1 X50.541 Y11.717 E73.22026
G1 X50 Y11.8 E73.2462
G0 F3600 X50 Y11.4
G1 F1800 X-50 Y11.4 E77.98577
G1 X-50.332 Y11.36 E78.00161
G1 X-50.644 Y11.243 E78.01741
G1 X-50.921 Y11.055 E78.03327
G1 X-51.144 Y10.807 E78.04908
G1 X-51.303 Y10.513 E78.06492
G1 X-51.4 Y10 E78.08967
G1 X-51.4 Y-10 E79.03758
G1 X-51.36 Y-10.332 E79.05343
G1 X-51.243 Y-10.644 E79.06922
G1 X-51.055 Y-10.921 E79.08509
G1 X-50.807 Y-11.144 E79.1009
G1 X-50.513 Y-11.303 E79.11674
G1 X-50 Y-11.4 E79.14148
G1 X50 Y-11.4 E83.88105
G1 X50.332 Y-11.36 E83.8969
G1 X50.644 Y-11.243 E83.9127
G1 X50.921 Y-11.055 E83.92856
G1 X51.144 Y-10.807 E83.94437
G1 X51.303 Y-10.513 E83.96021
G1 X51.4 Y-10 E83.98496
G1 X51.4 Y10 E84.93287
G1 X51.36 Y10.332 E84.94872
G1 X51.243 Y10.644 E84.96451
G1 X51.055 Y10.921 E84.98038
G1 X50.807 Y11.144 E84.99619
G1 X50.513 Y11.303 E85.01203
G1 X50 Y11.4 E85.03677
G0 F3600 X50 Y11
G1 F1800 X-50 Y11 E89.77634
G1 X-50.279 Y10.96 E89.7897
G1 X-50.536 Y10.844 E89.80306
G1 X-50.751 Y10.661 E89.81645
G1 X-50.905 Y10.425 E89.8298
G1 X-51 Y10 E89.85044
G1 X-51 Y-10 E90.79836
G1 X-50.96 Y-10.279 E90.81172
G1 X-50.844 Y-10.536 E90.82508
G1 X-50.661 Y-10.751 E90.83846
G1 X-50.425 Y-10.905 E90.85182
G1 X-50 Y-11 E90.87246
G1 X50 Y-11 E95.61203
G1 X50.279 Y-10.96 E95.62539
G1 X50.536 Y-10.844 E95.63875
G1 X50.751 Y-10.661 E95.65213
G1 X50.905 Y-10.425 E95.66549
G1 X51 Y-10 E95.68613
G1 X51 Y10 E96.63404
G1 X50.96 Y10.279 E96.6474
G1 X50.844 Y10.536 E96.66076
G1 X50.661 Y10.751 E96.67415
G1 X50.425 Y10.905 E96.6875
G1 X50 Y11 E96.70814
G0 F3600 X50 Y10.6
G1 F1800 X-50 Y10.6 E101.44771
G1 X-50.215 Y10.56 E101.45808
G1 X-50.401 Y10.447 E101.46839
G1 X-50.534 Y10.274 E101.47873
G1 X-50.6 Y10 E101.49209
G1 X-50.6 Y-10 E102.44
G1 X-50.56 Y-10.215 E102.45037
G1 X-50.447 Y-10.401 E102.46068
G1 X-50.274 Y-10.534 E102.47103
G1 X-50 Y-10.6 E102.48439
G1 X50 Y-10.6 E107.22395
G1 X50.215 Y-10.56 E107.23432
G1 X50.401 Y-10.447 E107.24463
G1 X50.534 Y-10.274 E107.25498
G1 X50.6 Y-10 E107.26833
G1 X50.6 Y10 E108.21625
G1 X50.56 Y10.215 E108.22661
G1 X50.447 Y10.401 E108.23693
G1 X50.274 Y10.534 E108.24727
G1 X50 Y10.6 E108.26063
G0 F3600 X50 Y10.2
G1 F1800 X-50 Y10.2 E113.0002
G1 X-50.119 Y10.161 E113.00613
G1 X-50.2 Y10 E113.01468
G1 X-50.2 Y-10 E113.96259
G1 X-50.161 Y-10.119 E113.96852
G1 X-50 Y-10.2 E113.97707
G1 X50 Y-10.2 E118.71664
G1 X50.119 Y-10.161 E118.72257
G1 X50.2 Y-10 E118.73111
G1 X50.2 Y10 E119.67903
G1 X50.161 Y10.119 E119.68496
G1 X50 Y10.2 E119.6935
;MESH:Cube.stl
G0 F3600 X49.8 Y9.8
;TYPE:WALL-OUTER
G1 F1800 X-49.8 Y9.8 E124.31473
G1 X-49.8 Y-9.8 E125.22413
G1 X49.8 Y-9.8 E129.84536
G1 X49.8 Y9.8 E130.75476
G0 F3600 X49.6 Y9.8
G0 X49.41 Y9.41
;TYPE:SKIN
G1 F1800 X-49.41 Y9.41 E135.4384
G1 X-49.41 Y-9.41 E136.33039
G1 X49.41 Y-9.41 E141.01403
G1 X49.41 Y9.41 E141.90602
G0 F3600 X49.229 Y-9.036
G1 F1800 X49.035 Y-9.229 E141.91899
G0 F3600 X48.47 Y-9.229
G1 F1800 X49.229 Y-8.47 E141.96986
G0 F3600 X49.229 Y-7.904
G1 F1800 X47.904 Y-9.229 E142.05867
G0 F3600 X47.338 Y-9.229
G1 F1800 X49.229 Y-7.339 E142.18539
G0 F3600 X49.229 Y-6.773
G1 F1800 X46.772 Y-9.229 E142.35004
G0 F3600 X46.207 Y-9.229
G1 F1800 X49.229 Y-6.207 E142.5526
G0 F3600 X49.229 Y-5.642
G1 F1800 X45.641 Y-9.229 E142.79306
G0 F3600 X45.075 Y-9.229
G1 F1800 X49.229 Y-5.076 E143.07146
G0 F3600 X49.229 Y-4.51
G1 F1800 X44.51 Y-9.229 E143.38777
G0 F3600 X43.944 Y-9.229
G1 F1800 X49.229 Y-3.944 E143.74201
G0 F3600 X49.229 Y-3.379
G1 F1800 X43.378 Y-9.229 E144.13415
G0 F3600 X42.813 Y-9.229
G1 F1800 X49.229 Y-2.813 E144.5642
G0 F3600 X49.229 Y-2.247
G1 F1800 X42.247 Y-9.229 E145.03219
G0 F3600 X41.681 Y-9.229
G1 F1800 X49.229 Y-1.682 E145.53808
G0 F3600 X49.229 Y-1.116
G1 F1800 X41.116 Y-9.229 E146.08187
G0 F3600 X40.55 Y-9.229
G1 F1800 X49.229 Y-.55 E146.66361
G0 F3600 X49.229 Y0.014
G1 F1800 X39.984 Y-9.229 E147.28321
G0 F3600 X39.419 Y-9.229
G1 F1800 X49.229 Y0.58 E147.94072
G0 F3600 X49.229 Y1.146
G1 F1800 X38.853 Y-9.229 E148.63616
G0 F3600 X38.287 Y-9.229
G1 F1800 X49.229 Y1.711 E149.36951
G0 F3600 X49.229 Y2.277
G1 F1800 X37.722 Y-9.229 E150.14077
G0 F3600 X37.156 Y-9.229
G1 F1800 X49.229 Y2.843 E150.94996
G0 F3600 X49.229 Y3.408
G1 F1800 X36.59 Y-9.229 E151.79705
G0 F3600 X36.024 Y-9.229
G1 F1800 X49.229 Y3.974 E152.68208
G0 F3600 X49.229 Y4.54
G1 F1800 X35.459 Y-9.229 E153.60502
G0 F3600 X34.893 Y-9.229
G1 F1800 X49.229 Y5.106 E154.5659
G0 F3600 X49.229 Y5.671
G1 F1800 X34.327 Y-9.229 E155.56468
G0 F3600 X33.762 Y-9.229
G1 F1800 X49.229 Y6.237 E156.60136
G0 F3600 X49.229 Y6.803
G1 F1800 X33.196 Y-9.229 E157.67598
G0 F3600 X32.63 Y-9.229
G1 F1800 X49.229 Y7.368 E158.7885
G0 F3600 X49.229 Y7.934
G1 F1800 X32.065 Y-9.229 E159.93893
G0 F3600 X31.499 Y-9.229
G1 F1800 X49.229 Y8.5 E161.1273
G0 F3600 X49.229 Y9.065
G1 F1800 X30.933 Y-9.229 E162.35357
G0 F3600 X30.368 Y-9.229
G1 F1800 X48.827 Y9.229 E163.5908
G0 F3600 X48.262 Y9.229
G1 F1800 X29.802 Y-9.229 E164.82806
G0 F3600 X29.236 Y-9.229
G1 F1800 X47.696 Y9.229 E166.06532
G0 F3600 X47.13 Y9.229
G1 F1800 X28.671 Y-9.229 E167.30255
G0 F3600 X28.105 Y-9.229
G1 F1800 X46.565 Y9.229 E168.53982
G0 F3600 X45.999 Y9.229
G1 F1800 X27.539 Y-9.229 E169.77708
G0 F3600 X26.974 Y-9.229
G1 F1800 X45.433 Y9.229 E171.01431
G0 F3600 X44.868 Y9.229
G1 F1800 X26.408 Y-9.229 E172.25157
G0 F3600 X25.842 Y-9.229
G1 F1800 X44.302 Y9.229 E173.48884
G0 F3600 X43.736 Y9.229
G1 F1800 X25.276 Y-9.229 E174.7261
G0 F3600 X24.711 Y-9.229
G1 F1800 X43.17 Y9.229 E175.96333
G0 F3600 X42.605 Y9.229
G1 F1800 X24.145 Y-9.229 E177.20059
G0 F3600 X23.579 Y-9.229
G1 F1800 X42.039 Y9.229 E178.43785
G0 F3600 X41.473 Y9.229
G1 F1800 X23.014 Y-9.229 E179.67508
G0 F3600 X22.448 Y-9.229
G1 F1800 X40.908 Y9.229 E180.91235
G0 F3600 X40.342 Y9.229
G1 F1800 X21.882 Y-9.229 E182.14961
G0 F3600 X21.317 Y-9.229
G1 F1800 X39.776 Y9.229 E183.38684
G0 F3600 X39.211 Y9.229
G1 F1800 X20.751 Y-9.229 E184.6241
G0 F3600 X20.185 Y-9.229
G1 F1800 X38.645 Y9.229 E185.86137
G0 F3600 X38.079 Y9.229
G1 F1800 X19.62 Y-9.229 E187.0986
G0 F3600 X19.054 Y-9.229
G1 F1800 X37.514 Y9.229 E188.33586
G0 F3600 X36.948 Y9.229
G1 F1800 X18.488 Y-9.229 E189.57312
G0 F3600 X17.923 Y-9.229
G1 F1800 X36.382 Y9.229 E190.81035
G0 F3600 X35.817 Y9.229
G1 F1800 X17.357 Y-9.229 E192.04761
G0 F3600 X16.791 Y-9.229
G1 F1800 X35.251 Y9.229 E193.28488
G0 F3600 X34.685 Y9.229
G1 F1800 X16.225 Y-9.229 E194.52214
G0 F3600 X15.66 Y-9.229
G1 F1800 X34.12 Y9.229 E195.7594
G0 F3600 X33.554 Y9.229
G1 F1800 X15.094 Y-9.229 E196.99667
G0 F3600 X14.528 Y-9.229
G1 F1800 X32.988 Y9.229 E198.23393
G0 F3600 X32.422 Y9.229
G1 F1800 X13.963 Y-9.229 E199.47116
G0 F3600 X13.397 Y-9.229
G1 F1800 X31.857 Y9.229 E200.70842
G0 F3600 X31.291 Y9.229
G1 F1800 X12.831 Y-9.229 E201.94568
G0 F3600 X12.266 Y-9.229
G1 F1800 X30.725 Y9.229 E203.18291
G0 F3600 X30.16 Y9.229
G1 F1800 X11.7 Y-9.229 E204.42018
G0 F3600 X11.134 Y-9.229
G1 F1800 X29.594 Y9.229 E205.65744
G0 F3600 X29.028 Y9.229
G1 F1800 X10.569 Y-9.229 E206.89467
G0 F3600 X10.003 Y-9.229
G1 F1800 X28.463 Y9.229 E208.13193
