;FLAVOR:Makerbot
;TIME:27778
;MINX:-53.8
;MINY:-53.8
;MINZ:0.3
;MAXX:53.8
;MAXY:53.8
;MAXZ:99.95
;Generated with Cura_SteamEngine 4.7.0
T0
M190 S60
M104 S210
M104 S210
M116
M82 ;absolute extrusion mode
; -- START GCODE --
M136 ; start build
M73 P0
G90 ; absolute coordinates
;
; set temperatures and assert Vref
M7 S{print_bed_temperature}
M6 S{print_temperature} T0
M6 S{print_temperature2) T1
G130 X118 Y118 A118 B118 ; set stepper motor Vref to defaults
; let the Z stepper vref stay at eeprom level (probably 40)
;
; home and recall eeprom home position
T0 ; home on the right nozzle
G28 X Y Z ; home all axes at homing speed
G92 X0 Y0 Z0 A0 B0 ; set all coords to 0 for now
G1 Z5 F500 ; move Z 5mm away so we can carefully hit the limit switch
G161 Z F100 ; home Z slowly
M132 X Y Z ; recall stored home offsets for XYZ axes
;
; wait for heat up
G1 X110 Y-72 Z30 F3300 ; move to waiting position
M116 ; wait for temps
;
; purge and wipe
G92 E0 ; set current extruder position as 0 so that E15 below makes sense
G1 X110 Y-70 Z0.2 F2400.0 ; move to just on the bed
G1 X110 Y70 E15 F1200.000 ; extrude a line of filament along the right edge of the bed
G92 E0 ; set E to 0 again because the slicer's next extrusion is relative to this 0
;
; Sliced at: {day} {date} {time}
; Basic settings: Layer height: {layer_height} Walls: {wall_thickness} Fill: {fill_density}
; Print time: 07:42:58
; Filament used: [71.28, 0.0]m [212.587634375, 0.0]g
; Filament cost: [0.0, 0.0]
; -- end of START GCODE --
G92 E0
G92 E0
G1 F1500 E-6.5
;LAYER_COUNT:287
;LAYER:0
M127 T0
G0 F3600 X53.8 Y-50 Z0.3
;TYPE:SKIRT
G1 F1500 E0
G1 F1800 X53.8 Y50 E4.73957
G1 X53.76 Y50.55 E4.76571
G1 X53.641 Y51.088 E4.79182
G1 X53.445 Y51.603 E4.81794
G1 X53.177 Y52.084 E4.84403
G1 X52.843 Y52.522 E4.87014
G1 X52.448 Y52.906 E4.89625
G1 X52.002 Y53.23 E4.92238
G1 X51.514 Y53.485 E4.94848
G1 X50.994 Y53.668 E4.9746
G1 X50.453 Y53.773 E5.00072
G1 X50 Y53.8 E5.02223
G1 X-50 Y53.8 E9.7618
G1 X-50.55 Y53.76 E9.78794
G1 X-51.088 Y53.641 E9.81405
G1 X-51.603 Y53.445 E9.84017
G1 X-52.084 Y53.177 E9.86627
G1 X-52.522 Y52.843 E9.89237
G1 X-52.906 Y52.448 E9.91848
G1 X-53.23 Y52.002 E9.94461
G1 X-53.485 Y51.514 E9.97071
G1 X-53.668 Y50.994 E9.99683
G1 X-53.773 Y50.453 E10.02295
G1 X-53.8 Y50 E10.04446
G1 X-53.8 Y-50 E14.78403
G1 X-53.76 Y-50.55 E14.81017
G1 X-53.641 Y-51.088 E14.83628
G1 X-53.445 Y-51.603 E14.8624
G1 X-53.177 Y-52.084 E14.8885
G1 X-52.843 Y-52.522 E14.9146
G1 X-52.448 Y-52.906 E14.94071
G1 X-52.002 Y-53.23 E14.96684
G1 X-51.514 Y-53.485 E14.99294
G1 X-50.994 Y-53.668 E15.01906
G1 X-50.453 Y-53.773 E15.04518
G1 X-50 Y-53.8 E15.06669
G1 X50 Y-53.8 E19.80626
G1 X50.55 Y-53.76 E19.8324
G1 X51.088 Y-53.641 E19.85851
G1 X51.603 Y-53.445 E19.88463
G1 X52.084 Y-53.177 E19.91073
G1 X52.522 Y-52.843 E19.93683
G1 X52.906 Y-52.448 E19.96294
G1 X53.23 Y-52.002 E19.98907
G1 X53.485 Y-51.514 E20.01517
G1 X53.668 Y-50.994 E20.04129
G1 X53.773 Y-50.453 E20.06741
G1 X53.8 Y-50 E20.08892
G0 F3600 X53.4 Y-50
G1 F1800 X53.4 Y50 E24.82849
G1 X53.36 Y50.52 E24.85321
G1 X53.241 Y51.027 E24.87789
G1 X53.046 Y51.51 E24.90258
G1 X52.78 Y51.958 E24.92727
G1 X52.448 Y52.36 E24.95198
G1 X52.058 Y52.706 E24.97669
G1 X51.62 Y52.989 E25.00141
G1 X51.145 Y53.202 E25.02608
G1 X50.642 Y53.339 E25.05079
G1 X50 Y53.4 E25.08136
G1 X-50 Y53.4 E29.82093
G1 X-50.52 Y53.36 E29.84564
G1 X-51.027 Y53.241 E29.87033
G1 X-51.51 Y53.046 E29.89501
G1 X-51.958 Y52.78 E29.91971
G1 X-52.36 Y52.448 E29.94442
G1 X-52.706 Y52.058 E29.96913
G1 X-52.989 Y51.62 E29.99384
G1 X-53.202 Y51.145 E30.01852
G1 X-53.339 Y50.642 E30.04323
G1 X-53.4 Y50 E30.07379
G1 X-53.4 Y-50 E34.81336
G1 X-53.36 Y-50.52 E34.83808
G1 X-53.241 Y-51.027 E34.86276
G1 X-53.046 Y-51.51 E34.88745
G1 X-52.78 Y-51.958 E34.91214
G1 X-52.448 Y-52.36 E34.93685
G1 X-52.058 Y-52.706 E34.96156
G1 X-51.62 Y-52.989 E34.98628
G1 X-51.145 Y-53.202 E35.01095
G1 X-50.642 Y-53.339 E35.03566
G1 X-50 Y-53.4 E35.06623
G1 X50 Y-53.4 E39.80579
G1 X50.52 Y-53.36 E39.83051
G1 X51.027 Y-53.241 E39.8552
G1 X51.51 Y-53.046 E39.87988
G1 X51.958 Y-52.78 E39.90458
G1 X52.36 Y-52.448 E39.92929
G1 X52.706 Y-52.058 E39.954
G1 X52.989 Y-51.62 E39.97871
G1 X53.202 Y-51.145 E40.00339
G1 X53.339 Y-50.642 E40.0281
G1 X53.4 Y-50 E40.05866
G0 F3600 X53 Y-50
G1 F1800 X53 Y50 E44.79823
G1 X52.96 Y50.488 E44.82144
G1 X52.841 Y50.963 E44.84464
G1 X52.647 Y51.412 E44.86783
G1 X52.382 Y51.824 E44.89104
G1 X52.054 Y52.187 E44.91423
G1 X51.671 Y52.492 E44.93744
G1 X51.243 Y52.73 E44.96065
G1 X50.783 Y52.896 E44.98383
G1 X50 Y53 E45.02126
G1 X-50 Y53 E49.76083
G1 X-50.488 Y52.96 E49.78404
G1 X-50.963 Y52.841 E49.80725
G1 X-51.412 Y52.647 E49.83043
G1 X-51.824 Y52.382 E49.85365
G1 X-52.187 Y52.054 E49.87684
G1 X-52.492 Y51.671 E49.90004
G1 X-52.73 Y51.243 E49.92325
G1 X-52.896 Y50.783 E49.94643
G1 X-53 Y50 E49.98387
G1 X-53 Y-50 E54.72344
G1 X-52.96 Y-50.488 E54.74664
G1 X-52.841 Y-50.963 E54.76985
G1 X-52.647 Y-51.412 E54.79303
G1 X-52.382 Y-51.824 E54.81625
G1 X-52.054 Y-52.187 E54.83944
G1 X-51.671 Y-52.492 E54.86264
G1 X-51.243 Y-52.73 E54.88585
G1 X-50.783 Y-52.896 E54.90903
G1 X-50 Y-53 E54.94647
G1 X50 Y-53 E59.68604
G1 X50.488 Y-52.96 E59.70924
G1 X50.963 Y-52.841 E59.73245
G1 X51.412 Y-52.647 E59.75564
G1 X51.824 Y-52.382 E59.77885
G1 X52.187 Y-52.054 E59.80204
G1 X52.492 Y-51.671 E59.82525
G1 X52.73 Y-51.243 E59.84846
G1 X52.896 Y-50.783 E59.87163
G1 X53 Y-50 E59.90907
G0 F3600 X52.6 Y-50
G1 F1800 X52.6 Y50 E64.64864
G1 X52.56 Y50.454 E64.67024
G1 X52.442 Y50.894 E64.69183
G1 X52.248 Y51.306 E64.71342
G1 X51.985 Y51.679 E64.73505
G1 X51.662 Y52 E64.75663
G1 X51.287 Y52.259 E64.77823
G1 X50.873 Y52.449 E64.79982
G1 X50.432 Y52.564 E64.82142
G1 X50 Y52.6 E64.84197
G1 X-50 Y52.6 E69.58154
G1 X-50.454 Y52.56 E69.60314
G1 X-50.894 Y52.442 E69.62473
G1 X-51.306 Y52.248 E69.64631
G1 X-51.679 Y51.985 E69.66794
G1 X-52 Y51.662 E69.68953
G1 X-52.259 Y51.287 E69.71113
G1 X-52.449 Y50.873 E69.73272
G1 X-52.564 Y50.432 E69.75432
G1 X-52.6 Y50 E69.77486
G1 X-52.6 Y-50 E74.51443
G1 X-52.56 Y-50.454 E74.53603
G1 X-52.442 Y-50.894 E74.55762
G1 X-52.248 Y-51.306 E74.57921
G1 X-51.985 Y-51.679 E74.60084
G1 X-51.662 Y-52 E74.62242
G1 X-51.287 Y-52.259 E74.64402
G1 X-50.873 Y-52.449 E74.66561
G1 X-50.432 Y-52.564 E74.68721
G1 X-50 Y-52.6 E74.70776
G1 X50 Y-52.6 E79.44733
G1 X50.454 Y-52.56 E79.46893
G1 X50.894 Y-52.442 E79.49052
G1 X51.306 Y-52.248 E79.5121
G1 X51.679 Y-51.985 E79.53373
G1 X52 Y-51.662 E79.55532
G1 X52.259 Y-51.287 E79.57692
G1 X52.449 Y-50.873 E79.59851
G1 X52.564 Y-50.432 E79.62011
G1 X52.6 Y-50 E79.64065
G0 F3600 X52.2 Y-50
G1 F1800 X52.2 Y50 E84.38022
G1 X52.16 Y50.417 E84.40008
G1 X52.042 Y50.819 E84.41993
G1 X51.849 Y51.191 E84.4398
G1 X51.59 Y51.52 E84.45964
G1 X51.273 Y51.794 E84.4795
G1 X50.91 Y52.003 E84.49935
G1 X50.513 Y52.139 E84.51924
G1 X50 Y52.2 E84.54373
G1 X-50 Y52.2 E89.2833
G1 X-50.417 Y52.16 E89.30315
G1 X-50.819 Y52.042 E89.32301
G1 X-51.191 Y51.849 E89.34287
G1 X-51.52 Y51.59 E89.36272
G1 X-51.794 Y51.273 E89.38258
G1 X-52.003 Y50.91 E89.40243
G1 X-52.139 Y50.513 E89.42232
G1 X-52.2 Y50 E89.4468
G1 X-52.2 Y-50 E94.18637
G1 X-52.16 Y-50.417 E94.20623
G1 X-52.042 Y-50.819 E94.22609
G1 X-51.849 Y-51.191 E94.24595
G1 X-51.59 Y-51.52 E94.26579
G1 X-51.273 Y-51.794 E94.28565
G1 X-50.91 Y-52.003 E94.3055
G1 X-50.513 Y-52.139 E94.32539
G1 X-50 Y-52.2 E94.34988
G1 X50 Y-52.2 E99.08945
G1 X50.417 Y-52.16 E99.1093
G1 X50.819 Y-52.042 E99.12916
G1 X51.191 Y-51.849 E99.14902
G1 X51.52 Y-51.59 E99.16887
G1 X51.794 Y-51.273 E99.18873
G1 X52.003 Y-50.91 E99.20858
G1 X52.139 Y-50.513 E99.22847
G1 X52.2 Y-50 E99.25296
G0 F3600 X51.8 Y-50
G1 F1800 X51.8 Y50 E103.99252
G1 X51.76 Y50.377 E104.01049
G1 X51.642 Y50.737 E104.02845
G1 X51.452 Y51.064 E104.04637
G1 X51.197 Y51.345 E104.06436
G1 X50.888 Y51.565 E104.08234
G1 X50.541 Y51.717 E104.10029
G1 X50 Y51.8 E104.12623
G1 X-50 Y51.8 E108.8658
G1 X-50.377 Y51.76 E108.88377
G1 X-50.737 Y51.642 E108.90172
G1 X-51.064 Y51.452 E108.91965
G1 X-51.345 Y51.197 E108.93763
G1 X-51.565 Y50.888 E108.95561
G1 X-51.717 Y50.541 E108.97357
G1 X-51.8 Y50 E108.99951
G1 X-51.8 Y-50 E113.73908
G1 X-51.76 Y-50.377 E113.75705
G1 X-51.642 Y-50.737 E113.775
G1 X-51.452 Y-51.064 E113.79293
G1 X-51.197 Y-51.345 E113.81091
G1 X-50.888 Y-51.565 E113.82889
G1 X-50.541 Y-51.717 E113.84684
G1 X-50 Y-51.8 E113.87278
G1 X50 Y-51.8 E118.61235
G1 X50.377 Y-51.76 E118.63032
G1 X50.737 Y-51.642 E118.64828
G1 X51.064 Y-51.452 E118.6662
G1 X51.345 Y-51.197 E118.68419
G1 X51.565 Y-50.888 E118.70217
G1 X51.717 Y-50.541 E118.72012
G1 X51.8 Y-50 E118.74606
G0 F3600 X51.4 Y-50
G1 F1800 X51.4 Y50 E123.48563
G1 X51.36 Y50.332 E123.50148
G1 X51.243 Y50.644 E123.51727
G1 X51.055 Y50.921 E123.53314
G1 X50.807 Y51.144 E123.54895
G1 X50.513 Y51.303 E123.56479
G1 X50 Y51.4 E123.58953
G1 X-50 Y51.4 E128.3291
G1 X-50.332 Y51.36 E128.34495
G1 X-50.644 Y51.243 E128.36074
G1 X-50.921 Y51.055 E128.37661
G1 X-51.144 Y50.807 E128.39242
G1 X-51.303 Y50.513 E128.40826
G1 X-51.4 Y50 E128.433
G1 X-51.4 Y-50 E133.17257
G1 X-51.36 Y-50.332 E133.18842
G1 X-51.243 Y-50.644 E133.20422
G1 X-51.055 Y-50.921 E133.22008
G1 X-50.807 Y-51.144 E133.23589
G1 X-50.513 Y-51.303 E133.25173
G1 X-50 Y-51.4 E133.27648
G1 X50 Y-51.4 E138.01605
G1 X50.332 Y-51.36 E138.0319
G1 X50.644 Y-51.243 E138.04769
G1 X50.921 Y-51.055 E138.06356
G1 X51.144 Y-50.807 E138.07936
G1 X51.303 Y-50.513 E138.0952
G1 X51.4 Y-50 E138.11995
G0 F3600 X51 Y-50
G1 F1800 X51 Y50 E142.85952
G1 X50.96 Y50.279 E142.87288
G1 X50.844 Y50.536 E142.88624
G1 X50.661 Y50.751 E142.89962
G1 X50.425 Y50.905 E142.91298
G1 X50 Y51 E142.93362
G1 X-50 Y51 E147.67319
G1 X-50.279 Y50.96 E147.68655
G1 X-50.536 Y50.844 E147.69991
G1 X-50.751 Y50.661 E147.71329
G1 X-50.905 Y50.425 E147.72665
G1 X-51 Y50 E147.74729
G1 X-51 Y-50 E152.48686
G1 X-50.96 Y-50.279 E152.50022
G1 X-50.844 Y-50.536 E152.51358
G1 X-50.661 Y-50.751 E152.52696
G1 X-50.425 Y-50.905 E152.54032
G1 X-50 Y-51 E152.56096
G1 X50 Y-51 E157.30053
G1 X50.279 Y-50.96 E157.31389
G1 X50.536 Y-50.844 E157.32725
G1 X50.751 Y-50.661 E157.34063
G1 X50.905 Y-50.425 E157.35399
G1 X51 Y-50 E157.37463
G0 F3600 X50.6 Y-50
G1 F1800 X50.6 Y50 E162.1142
G1 X50.56 Y50.215 E162.12456
G1 X50.447 Y50.401 E162.13488
G1 X50.274 Y50.534 E162.14522
G1 X50 Y50.6 E162.15858
G1 X-50 Y50.6 E166.89815
G1 X-50.215 Y50.56 E166.90851
G1 X-50.401 Y50.447 E166.91883
G1 X-50.534 Y50.274 E166.92917
G1 X-50.6 Y50 E166.94253
G1 X-50.6 Y-50 E171.6821
G1 X-50.56 Y-50.215 E171.69246
G1 X-50.447 Y-50.401 E171.70278
G1 X-50.274 Y-50.534 E171.71312
G1 X-50 Y-50.6 E171.72648
G1 X50 Y-50.6 E176.46605
G1 X50.215 Y-50.56 E176.47641
G1 X50.401 Y-50.447 E176.48673
G1 X50.534 Y-50.274 E176.49707
G1 X50.6 Y-50 E176.51043
G0 F3600 X50.2 Y-50
G1 F1800 X50.2 Y50 E181.25
G1 X50.161 Y50.119 E181.25593
G1 X50 Y50.2 E181.26447
G1 X-50 Y50.2 E186.00404
G1 X-50.119 Y50.161 E186.00998
G1 X-50.2 Y50 E186.01852
G1 X-50.2 Y-50 E190.75809
G1 X-50.161 Y-50.119 E190.76402
G1 X-50 Y-50.2 E190.77257
G1 X50 Y-50.2 E195.51213
G1 X50.119 Y-50.161 E195.51807
G1 X50.2 Y-50 E195.52661
G1 F1500 E189.02661
;MESH:Cube.stl
G0 F3600 X49.7 Y49.73
G0 X49.8 Y49.8
;TYPE:WALL-OUTER
G1 F1500 E195.52661
G1 F1800 X-49.8 Y49.8 E200.14784
G1 X-49.8 Y-49.8 E204.76907
G1 X49.8 Y-49.8 E209.3903
G1 X49.8 Y49.8 E214.01153
G0 F3600 X49.6 Y49.8
G0 X49.41 Y49.41
;TYPE:SKIN
G1 F1800 X-49.41 Y49.41 E218.69517
G1 X-49.41 Y-49.41 E223.37882
G1 X49.41 Y-49.41 E228.06246
G1 X49.41 Y49.41 E232.7461
G0 F3600 X48.634 Y-49.229
G1 F1800 X49.229 Y-48.634 E232.78598
G0 F3600 X49.229 Y-48.068
G1 F1800 X48.068 Y-49.229 E232.8638
G0 F3600 X47.502 Y-49.229
G1 F1800 X49.229 Y-47.502 E232.97956
G0 F3600 X49.229 Y-46.937
G1 F1800 X46.937 Y-49.229 E233.13318
G0 F3600 X46.371 Y-49.229
G1 F1800 X49.229 Y-46.371 E233.32475
G0 F3600 X49.229 Y-45.805
G1 F1800 X45.805 Y-49.229 E233.55425
G0 F3600 X45.239 Y-49.229
G1 F1800 X49.229 Y-45.239 E233.82169
G0 F3600 X49.229 Y-44.674
G1 F1800 X44.674 Y-49.229 E234.127
G0 F3600 X44.108 Y-49.229
G1 F1800 X49.229 Y-44.108 E234.47025
G0 F3600 X49.229 Y-43.542
G1 F1800 X43.542 Y-49.229 E234.85144
G0 F3600 X42.977 Y-49.229
G1 F1800 X49.229 Y-42.977 E235.27049
G0 F3600 X49.229 Y-42.411
G1 F1800 X42.411 Y-49.229 E235.72749
G0 F3600 X41.845 Y-49.229
G1 F1800 X49.229 Y-41.845 E236.22242
G0 F3600 X49.229 Y-41.28
G1 F1800 X41.28 Y-49.229 E236.75522
G0 F3600 X40.714 Y-49.229
G1 F1800 X49.229 Y-40.714 E237.32596
G0 F3600 X49.229 Y-40.148
G1 F1800 X40.148 Y-49.229 E237.93464
G0 F3600 X39.583 Y-49.229
G1 F1800 X49.229 Y-39.583 E238.58119
G0 F3600 X49.229 Y-39.017
G1 F1800 X39.017 Y-49.229 E239.26568
G0 F3600 X38.451 Y-49.229
G1 F1800 X49.229 Y-38.451 E239.9881
G0 F3600 X49.229 Y-37.886
G1 F1800 X37.886 Y-49.229 E240.74839
G0 F3600 X37.32 Y-49.229
G1 F1800 X49.229 Y-37.32 E241.54663
G0 F3600 X49.229 Y-36.754
G1 F1800 X36.754 Y-49.229 E242.3828
G0 F3600 X36.189 Y-49.229
G1 F1800 X49.229 Y-36.189 E243.25684
G0 F3600 X49.229 Y-35.623
G1 F1800 X35.623 Y-49.229 E244.16881
G0 F3600 X35.057 Y-49.229
G1 F1800 X49.229 Y-35.057 E245.11873
G0 F3600 X49.229 Y-34.491
G1 F1800 X34.491 Y-49.229 E246.10658
G0 F3600 X33.926 Y-49.229
G1 F1800 X49.229 Y-33.926 E247.13231
G0 F3600 X49.229 Y-33.36
G1 F1800 X33.36 Y-49.229 E248.19597
G0 F3600 X32.794 Y-49.229
G1 F1800 X49.229 Y-32.794 E249.29757
G0 F3600 X49.229 Y-32.229
G1 F1800 X32.229 Y-49.229 E250.43704
G0 F3600 X31.663 Y-49.229
G1 F1800 X49.229 Y-31.663 E251.61445
G0 F3600 X49.229 Y-31.097
G1 F1800 X31.097 Y-49.229 E252.82979
G0 F3600 X30.532 Y-49.229
G1 F1800 X49.229 Y-30.532 E254.08301
G0 F3600 X49.229 Y-29.966
G1 F1800 X29.966 Y-49.229 E255.37416
G0 F3600 X29.4 Y-49.229
G1 F1800 X49.229 Y-29.4 E256.70325
G0 F3600 X49.229 Y-28.835
G1 F1800 X28.835 Y-49.229 E258.07021
G0 F3600 X28.269 Y-49.229
G1 F1800 X49.229 Y-28.269 E259.47511
G0 F3600 X49.229 Y-27.703
G1 F1800 X27.703 Y-49.229 E260.91795
G0 F3600 X27.138 Y-49.229
G1 F1800 X49.229 Y-27.138 E262.39865
G0 F3600 X49.229 Y-26.572
G1 F1800 X26.572 Y-49.229 E263.9173
G0 F3600 X26.006 Y-49.229
G1 F1800 X49.229 Y-26.006 E265.47388
G0 F3600 X49.229 Y-25.44
G1 F1800 X25.44 Y-49.229 E267.0684
G0 F3600 X24.875 Y-49.229
G1 F1800 X49.229 Y-24.875 E268.70079
G0 F3600 X49.229 Y-24.309
G1 F1800 X24.309 Y-49.229 E270.37112
G0 F3600 X23.743 Y-49.229
G1 F1800 X49.229 Y-23.743 E272.07939
G0 F3600 X49.229 Y-23.178
G1 F1800 X23.178 Y-49.229 E273.82553
G0 F3600 X22.612 Y-49.229
G1 F1800 X49.229 Y-22.612 E275.6096
G0 F3600 X49.229 Y-22.046
G1 F1800 X22.046 Y-49.229 E277.43161
G0 F3600 X21.481 Y-49.229
G1 F1800 X49.229 Y-21.481 E279.29149
G0 F3600 X49.229 Y-20.915
G1 F1800 X20.915 Y-49.229 E281.18931
G0 F3600 X20.349 Y-49.229
G1 F1800 X49.229 Y-20.349 E283.12507
G0 F3600 X49.229 Y-19.784
G1 F1800 X19.784 Y-49.229 E285.0987
G0 F3600 X19.218 Y-49.229
G1 F1800 X49.229 Y-19.218 E287.11027
G0 F3600 X49.229 Y-18.652
G1 F1800 X18.652 Y-49.229 E289.15977
G0 F3600 X18.087 Y-49.229
G1 F1800 X49.229 Y-18.087 E291.24715
G0 F3600 X49.229 Y-17.521
G1 F1800 X17.521 Y-49.229 E293.37246
G0 F3600 X16.955 Y-49.229
G1 F1800 X49.229 Y-16.955 E295.53571
G0 F3600 X49.229 Y-16.39
G1 F1800 X16.39 Y-49.229 E297.73683
G0 F3600 X15.824 Y-49.229
G1 F1800 X49.229 Y-15.824 E299.97589
G0 F3600 X49.229 Y-15.258
G1 F1800 X15.258 Y-49.229 E302.25288
G0 F3600 X14.692 Y-49.229
G1 F1800 X49.229 Y-14.692 E304.56782
G0 F3600 X49.229 Y-14.127
G1 F1800 X14.127 Y-49.229 E306.92062
G0 F3600 X13.561 Y-49.229
G1 F1800 X49.229 Y-13.561 E309.31136
G0 F3600 X49.229 Y-12.995
G1 F1800 X12.995 Y-49.229 E311.74004
G0 F3600 X12.43 Y-49.229
