;FLAVOR:Makerbot
;TIME:15145
;MINX:-53.8
;MINY:-28.8
;MINZ:0.3
;MAXX:53.8
;MAXY:28.8
;MAXZ:99.95
;Generated with Cura_SteamEngine 4.7.0
T0
M190 S60
M104 S210
M104 S210
M116
M82 ;absolute extrusion mode
; -- START GCODE --
M136 ; start build
M73 P0
G90 ; absolute coordinates
;
; set temperatures and assert Vref
M7 S{print_bed_temperature}
M6 S{print_temperature} T0
M6 S{print_temperature2) T1
G130 X118 Y118 A118 B118 ; set stepper motor Vref to defaults
; let the Z stepper vref stay at eeprom level (probably 40)
;
; home and recall eeprom home position
T0 ; home on the right nozzle
G28 X Y Z ; home all axes at homing speed
G92 X0 Y0 Z0 A0 B0 ; set all coords to 0 for now
G1 Z5 F500 ; move Z 5mm away so we can carefully hit the limit switch
G161 Z F100 ; home Z slowly
M132 X Y Z ; recall stored home offsets for XYZ axes
;
; wait for heat up
G1 X110 Y-72 Z30 F3300 ; move to waiting position
M116 ; wait for temps
;
; purge and wipe
G92 E0 ; set current extruder position as 0 so that E15 below makes sense
G1 X110 Y-70 Z0.2 F2400.0 ; move to just on the bed
G1 X110 Y70 E15 F1200.000 ; extrude a line of filament along the right edge of the bed
G92 E0 ; set E to 0 again because the slicer's next extrusion is relative to this 0
;
; Sliced at: {day} {date} {time}
; Basic settings: Layer height: {layer_height} Walls: {wall_thickness} Fill: {fill_density}
; Print time: 04:12:26
; Filament used: [36.97, 0.0]m [110.2792740625, 0.0]g
; Filament cost: [0.0, 0.0]
; -- end of START GCODE --
G92 E0
G92 E0
G1 F1500 E-6.5
;LAYER_COUNT:287
;LAYER:0
M127 T0
G0 F3600 X50 Y28.8 Z0.3
;TYPE:SKIRT
G1 F1500 E0
G1 F1800 X-50 Y28.8 E4.73957
G1 X-50.55 Y28.76 E4.76571
G1 X-51.088 Y28.641 E4.79182
G1 X-51.603 Y28.445 E4.81794
G1 X-52.084 Y28.177 E4.84403
G1 X-52.522 Y27.843 E4.87014
G1 X-52.906 Y27.448 E4.89625
G1 X-53.23 Y27.002 E4.92238
G1 X-53.485 Y26.514 E4.94848
G1 X-53.668 Y25.994 E4.9746
G1 X-53.773 Y25.453 E5.00072
G1 X-53.8 Y25 E5.02223
G1 X-53.8 Y-25 E7.39201
G1 X-53.76 Y-25.55 E7.41815
G1 X-53.641 Y-26.088 E7.44427
G1 X-53.445 Y-26.603 E7.47038
G1 X-53.177 Y-27.084 E7.49648
G1 X-52.843 Y-27.522 E7.52259
G1 X-52.448 Y-27.906 E7.5487
G1 X-52.002 Y-28.23 E7.57482
G1 X-51.514 Y-28.485 E7.60092
G1 X-50.994 Y-28.668 E7.62705
G1 X-50.453 Y-28.773 E7.65317
G1 X-50 Y-28.8 E7.67468
G1 X50 Y-28.8 E12.41425
G1 X50.55 Y-28.76 E12.44038
G1 X51.088 Y-28.641 E12.4665
G1 X51.603 Y-28.445 E12.49261
G1 X52.084 Y-28.177 E12.51871
G1 X52.522 Y-27.843 E12.54482
G1 X52.906 Y-27.448 E12.57093
G1 X53.23 Y-27.002 E12.59705
G1 X53.485 Y-26.514 E12.62315
G1 X53.668 Y-25.994 E12.64928
G1 X53.773 Y-25.453 E12.6754
G1 X53.8 Y-25 E12.69691
G1 X53.8 Y25 E15.06669
G1 X53.76 Y25.55 E15.09283
G1 X53.641 Y26.088 E15.11894
G1 X53.445 Y26.603 E15.14506
G1 X53.177 Y27.084 E15.17116
G1 X52.843 Y27.522 E15.19726
G1 X52.448 Y27.906 E15.22337
G1 X52.002 Y28.23 E15.2495
G1 X51.514 Y28.485 E15.2756
G1 X50.994 Y28.668 E15.30172
G1 X50.453 Y28.773 E15.32784
G1 X50 Y28.8 E15.34935
G0 F3600 X50 Y28.4
G1 F1800 X-50 Y28.4 E20.08892
G1 X-50.52 Y28.36 E20.11364
G1 X-51.027 Y28.241 E20.13832
G1 X-51.51 Y28.046 E20.16301
G1 X-51.958 Y27.78 E20.1877
G1 X-52.36 Y27.448 E20.21241
G1 X-52.706 Y27.058 E20.23712
G1 X-52.989 Y26.62 E20.26184
G1 X-53.202 Y26.145 E20.28651
G1 X-53.339 Y25.642 E20.31122
G1 X-53.4 Y25 E20.34179
G1 X-53.4 Y-25 E22.71157
G1 X-53.36 Y-25.52 E22.73629
G1 X-53.241 Y-26.027 E22.76097
G1 X-53.046 Y-26.51 E22.78566
G1 X-52.78 Y-26.958 E22.81035
G1 X-52.448 Y-27.36 E22.83506
G1 X-52.058 Y-27.706 E22.85977
G1 X-51.62 Y-27.989 E22.88449
G1 X-51.145 Y-28.202 E22.90916
G1 X-50.642 Y-28.339 E22.93387
G1 X-50 Y-28.4 E22.96444
G1 X50 Y-28.4 E27.70401
G1 X50.52 Y-28.36 E27.72872
G1 X51.027 Y-28.241 E27.75341
G1 X51.51 Y-28.046 E27.77809
G1 X51.958 Y-27.78 E27.80279
G1 X52.36 Y-27.448 E27.8275
G1 X52.706 Y-27.058 E27.85221
G1 X52.989 Y-26.62 E27.87693
G1 X53.202 Y-26.145 E27.9016
G1 X53.339 Y-25.642 E27.92631
G1 X53.4 Y-25 E27.95687
G1 X53.4 Y25 E30.32666
G1 X53.36 Y25.52 E30.35137
G1 X53.241 Y26.027 E30.37606
G1 X53.046 Y26.51 E30.40074
G1 X52.78 Y26.958 E30.42544
G1 X52.448 Y27.36 E30.45015
G1 X52.058 Y27.706 E30.47486
G1 X51.62 Y27.989 E30.49958
G1 X51.145 Y28.202 E30.52425
G1 X50.642 Y28.339 E30.54896
G1 X50 Y28.4 E30.57952
G0 F3600 X50 Y28
G1 F1800 X-50 Y28 E35.31909
G1 X-50.488 Y27.96 E35.3423
G1 X-50.963 Y27.841 E35.36551
G1 X-51.412 Y27.647 E35.38869
G1 X-51.824 Y27.382 E35.41191
G1 X-52.187 Y27.054 E35.43509
G1 X-52.492 Y26.671 E35.4583
G1 X-52.73 Y26.243 E35.48151
G1 X-52.896 Y25.783 E35.50469
G1 X-53 Y25 E35.54212
G1 X-53 Y-25 E37.91191
G1 X-52.96 Y-25.488 E37.93512
G1 X-52.841 Y-25.963 E37.95832
G1 X-52.647 Y-26.412 E37.98151
G1 X-52.382 Y-26.824 E38.00472
G1 X-52.054 Y-27.187 E38.02791
G1 X-51.671 Y-27.492 E38.05112
G1 X-51.243 Y-27.73 E38.07433
G1 X-50.783 Y-27.896 E38.09751
G1 X-50 Y-28 E38.13494
G1 X50 Y-28 E42.87451
G1 X50.488 Y-27.96 E42.89772
G1 X50.963 Y-27.841 E42.92093
G1 X51.412 Y-27.647 E42.94411
G1 X51.824 Y-27.382 E42.96733
G1 X52.187 Y-27.054 E42.99051
G1 X52.492 Y-26.671 E43.01372
G1 X52.73 Y-26.243 E43.03693
G1 X52.896 Y-25.783 E43.06011
G1 X53 Y-25 E43.09755
G1 X53 Y25 E45.46733
G1 X52.96 Y25.488 E45.49054
G1 X52.841 Y25.963 E45.51375
G1 X52.647 Y26.412 E45.53693
G1 X52.382 Y26.824 E45.56015
G1 X52.054 Y27.187 E45.58333
G1 X51.671 Y27.492 E45.60654
G1 X51.243 Y27.73 E45.62975
G1 X50.783 Y27.896 E45.65293
G1 X50 Y28 E45.69036
G0 F3600 X50 Y27.6
G1 F1800 X-50 Y27.6 E50.42993
G1 X-50.454 Y27.56 E50.45153
G1 X-50.894 Y27.442 E50.47313
G1 X-51.306 Y27.248 E50.49471
G1 X-51.679 Y26.985 E50.51634
G1 X-52 Y26.662 E50.53792
G1 X-52.259 Y26.287 E50.55952
G1 X-52.449 Y25.873 E50.58111
G1 X-52.564 Y25.432 E50.60271
G1 X-52.6 Y25 E50.62326
G1 X-52.6 Y-25 E52.99304
G1 X-52.56 Y-25.454 E53.01465
G1 X-52.442 Y-25.894 E53.03624
G1 X-52.248 Y-26.306 E53.05782
G1 X-51.985 Y-26.679 E53.07945
G1 X-51.662 Y-27 E53.10103
G1 X-51.287 Y-27.259 E53.12263
G1 X-50.873 Y-27.449 E53.14422
G1 X-50.432 Y-27.564 E53.16582
G1 X-50 Y-27.6 E53.18637
G1 X50 Y-27.6 E57.92594
G1 X50.454 Y-27.56 E57.94754
G1 X50.894 Y-27.442 E57.96913
G1 X51.306 Y-27.248 E57.99072
G1 X51.679 Y-26.985 E58.01235
G1 X52 Y-26.662 E58.03393
G1 X52.259 Y-26.287 E58.05553
G1 X52.449 Y-25.873 E58.07712
G1 X52.564 Y-25.432 E58.09872
G1 X52.6 Y-25 E58.11927
G1 X52.6 Y25 E60.48905
G1 X52.56 Y25.454 E60.51065
G1 X52.442 Y25.894 E60.53224
G1 X52.248 Y26.306 E60.55383
G1 X51.985 Y26.679 E60.57546
G1 X51.662 Y27 E60.59704
G1 X51.287 Y27.259 E60.61864
G1 X50.873 Y27.449 E60.64023
G1 X50.432 Y27.564 E60.66183
G1 X50 Y27.6 E60.68238
G0 F3600 X50 Y27.2
G1 F1800 X-50 Y27.2 E65.42195
G1 X-50.417 Y27.16 E65.4418
G1 X-50.819 Y27.042 E65.46166
G1 X-51.191 Y26.849 E65.48152
G1 X-51.52 Y26.59 E65.50137
G1 X-51.794 Y26.273 E65.52122
G1 X-52.003 Y25.91 E65.54108
G1 X-52.139 Y25.513 E65.56097
G1 X-52.2 Y25 E65.58545
G1 X-52.2 Y-25 E67.95524
G1 X-52.16 Y-25.417 E67.97509
G1 X-52.042 Y-25.819 E67.99495
G1 X-51.849 Y-26.191 E68.01481
G1 X-51.59 Y-26.52 E68.03466
G1 X-51.273 Y-26.794 E68.05452
G1 X-50.91 Y-27.003 E68.07437
G1 X-50.513 Y-27.139 E68.09426
G1 X-50 Y-27.2 E68.11874
G1 X50 Y-27.2 E72.85831
G1 X50.417 Y-27.16 E72.87817
G1 X50.819 Y-27.042 E72.89802
G1 X51.191 Y-26.849 E72.91789
G1 X51.52 Y-26.59 E72.93773
G1 X51.794 Y-26.273 E72.95759
G1 X52.003 Y-25.91 E72.97744
G1 X52.139 Y-25.513 E72.99733
G1 X52.2 Y-25 E73.02182
G1 X52.2 Y25 E75.3916
G1 X52.16 Y25.417 E75.41146
G1 X52.042 Y25.819 E75.43131
G1 X51.849 Y26.191 E75.45118
G1 X51.59 Y26.52 E75.47102
G1 X51.273 Y26.794 E75.49088
G1 X50.91 Y27.003 E75.51073
G1 X50.513 Y27.139 E75.53062
G1 X50 Y27.2 E75.55511
G0 F3600 X50 Y26.8
G1 F1800 X-50 Y26.8 E80.29468
G1 X-50.377 Y26.76 E80.31265
G1 X-50.737 Y26.642 E80.3306
G1 X-51.064 Y26.452 E80.34853
G1 X-51.345 Y26.197 E80.36651
G1 X-51.565 Y25.888 E80.38449
G1 X-51.717 Y25.541 E80.40244
G1 X-51.8 Y25 E80.42839
G1 X-51.8 Y-25 E82.79817
G1 X-51.76 Y-25.377 E82.81614
G1 X-51.642 Y-25.737 E82.83409
G1 X-51.452 Y-26.064 E82.85202
G1 X-51.197 Y-26.345 E82.87
G1 X-50.888 Y-26.565 E82.88798
G1 X-50.541 Y-26.717 E82.90594
G1 X-50 Y-26.8 E82.93188
G1 X50 Y-26.8 E87.67145
G1 X50.377 Y-26.76 E87.68942
G1 X50.737 Y-26.642 E87.70737
G1 X51.064 Y-26.452 E87.7253
G1 X51.345 Y-26.197 E87.74328
G1 X51.565 Y-25.888 E87.76126
G1 X51.717 Y-25.541 E87.77921
G1 X51.8 Y-25 E87.80515
G1 X51.8 Y25 E90.17494
G1 X51.76 Y25.377 E90.19291
G1 X51.642 Y25.737 E90.21086
G1 X51.452 Y26.064 E90.22879
G1 X51.197 Y26.345 E90.24677
G1 X50.888 Y26.565 E90.26475
G1 X50.541 Y26.717 E90.2827
G1 X50 Y26.8 E90.30865
G0 F3600 X50 Y26.4
G1 F1800 X-50 Y26.4 E95.04822
G1 X-50.332 Y26.36 E95.06406
G1 X-50.644 Y26.243 E95.07986
G1 X-50.921 Y26.055 E95.09572
G1 X-51.144 Y25.807 E95.11153
G1 X-51.303 Y25.513 E95.12737
G1 X-51.4 Y25 E95.15212
G1 X-51.4 Y-25 E97.5219
G1 X-51.36 Y-25.332 E97.53775
G1 X-51.243 Y-25.644 E97.55354
G1 X-51.055 Y-25.921 E97.56941
G1 X-50.807 Y-26.144 E97.58522
G1 X-50.513 Y-26.303 E97.60106
G1 X-50 Y-26.4 E97.6258
G1 X50 Y-26.4 E102.36537
G1 X50.332 Y-26.36 E102.38122
G1 X50.644 Y-26.243 E102.39702
G1 X50.921 Y-26.055 E102.41288
G1 X51.144 Y-25.807 E102.42869
G1 X51.303 Y-25.513 E102.44453
G1 X51.4 Y-25 E102.46928
G1 X51.4 Y25 E104.83906
G1 X51.36 Y25.332 E104.85491
G1 X51.243 Y25.644 E104.8707
G1 X51.055 Y25.921 E104.88657
G1 X50.807 Y26.144 E104.90238
G1 X50.513 Y26.303 E104.91822
G1 X50 Y26.4 E104.94296
G0 F3600 X50 Y26
G1 F1800 X-50 Y26 E109.68253
G1 X-50.279 Y25.96 E109.69589
G1 X-50.536 Y25.844 E109.70926
G1 X-50.751 Y25.661 E109.72264
G1 X-50.905 Y25.425 E109.73599
G1 X-51 Y25 E109.75663
G1 X-51 Y-25 E112.12642
G1 X-50.96 Y-25.279 E112.13978
G1 X-50.844 Y-25.536 E112.15314
G1 X-50.661 Y-25.751 E112.16652
G1 X-50.425 Y-25.905 E112.17988
G1 X-50 Y-26 E112.20052
G1 X50 Y-26 E116.94009
G1 X50.279 Y-25.96 E116.95345
G1 X50.536 Y-25.844 E116.96681
G1 X50.751 Y-25.661 E116.98019
G1 X50.905 Y-25.425 E116.99355
G1 X51 Y-25 E117.01419
G1 X51 Y25 E119.38397
G1 X50.96 Y25.279 E119.39733
G1 X50.844 Y25.536 E119.4107
G1 X50.661 Y25.751 E119.42408
G1 X50.425 Y25.905 E119.43743
G1 X50 Y26 E119.45807
G0 F3600 X50 Y25.6
G1 F1800 X-50 Y25.6 E124.19764
G1 X-50.215 Y25.56 E124.20801
G1 X-50.401 Y25.447 E124.21832
G1 X-50.534 Y25.274 E124.22867
G1 X-50.6 Y25 E124.24202
G1 X-50.6 Y-25 E126.61181
G1 X-50.56 Y-25.215 E126.62217
G1 X-50.447 Y-25.401 E126.63249
G1 X-50.274 Y-25.534 E126.64283
G1 X-50 Y-25.6 E126.65619
G1 X50 Y-25.6 E131.39576
G1 X50.215 Y-25.56 E131.40612
G1 X50.401 Y-25.447 E131.41644
G1 X50.534 Y-25.274 E131.42678
G1 X50.6 Y-25 E131.44014
G1 X50.6 Y25 E133.80992
G1 X50.56 Y25.215 E133.82029
G1 X50.447 Y25.401 E133.8306
G1 X50.274 Y25.534 E133.84094
G1 X50 Y25.6 E133.8543
G0 F3600 X50 Y25.2
G1 F1800 X-50 Y25.2 E138.59387
G1 X-50.119 Y25.161 E138.59981
G1 X-50.2 Y25 E138.60835
G1 X-50.2 Y-25 E140.97813
G1 X-50.161 Y-25.119 E140.98407
G1 X-50 Y-25.2 E140.99261
G1 X50 Y-25.2 E145.73218
G1 X50.119 Y-25.161 E145.73812
G1 X50.2 Y-25 E145.74666
G1 X50.2 Y25 E148.11644
G1 X50.161 Y25.119 E148.12238
G1 X50 Y25.2 E148.13092
;MESH:Cube.stl
G0 F3600 X49.8 Y24.8
;TYPE:WALL-OUTER
G1 F1800 X-49.8 Y24.8 E152.75215
G1 X-49.8 Y-24.8 E155.05348
G1 X49.8 Y-24.8 E159.67471
G1 X49.8 Y24.8 E161.97605
G0 F3600 X49.6 Y24.8
G0 X49.41 Y24.41
;TYPE:SKIN
G1 F1800 X-49.41 Y24.41 E166.65969
G1 X-49.41 Y-24.41 E168.97355
G1 X49.41 Y-24.41 E173.65719
G1 X49.41 Y24.41 E175.97105
G0 F3600 X49.229 Y-23.743
G1 F1800 X48.742 Y-24.23 E176.00369
G0 F3600 X48.177 Y-24.23
G1 F1800 X49.229 Y-23.178 E176.0742
G0 F3600 X49.229 Y-22.612
G1 F1800 X47.611 Y-24.23 E176.18266
G0 F3600 X47.045 Y-24.23
G1 F1800 X49.229 Y-22.046 E176.32904
G0 F3600 X49.229 Y-21.481
G1 F1800 X46.48 Y-24.23 E176.5133
G0 F3600 X45.914 Y-24.23
G1 F1800 X49.229 Y-20.915 E176.7355
G0 F3600 X49.229 Y-20.349
G1 F1800 X45.348 Y-24.23 E176.99563
G0 F3600 X44.783 Y-24.23
G1 F1800 X49.229 Y-19.784 E177.29364
G0 F3600 X49.229 Y-19.218
G1 F1800 X44.217 Y-24.23 E177.62958
G0 F3600 X43.651 Y-24.23
G1 F1800 X49.229 Y-18.652 E178.00346
G0 F3600 X49.229 Y-18.087
G1 F1800 X43.086 Y-24.23 E178.41521
G0 F3600 X42.52 Y-24.23
G1 F1800 X49.229 Y-17.521 E178.8649
G0 F3600 X49.229 Y-16.955
G1 F1800 X41.954 Y-24.23 E179.35253
G0 F3600 X41.389 Y-24.23
G1 F1800 X49.229 Y-16.39 E179.87802
G0 F3600 X49.229 Y-15.824
G1 F1800 X40.823 Y-24.23 E180.44146
G0 F3600 X40.257 Y-24.23
G1 F1800 X49.229 Y-15.258 E181.04283
G0 F3600 X49.229 Y-14.692
G1 F1800 X39.692 Y-24.23 E181.68211
G0 F3600 X39.126 Y-24.23
G1 F1800 X49.229 Y-14.127 E182.35929
G0 F3600 X49.229 Y-13.561
G1 F1800 X38.56 Y-24.23 E183.0744
G0 F3600 X37.994 Y-24.23
G1 F1800 X49.229 Y-12.995 E183.82746
G0 F3600 X49.229 Y-12.43
G1 F1800 X37.429 Y-24.23 E184.61838
G0 F3600 X36.863 Y-24.23
G1 F1800 X49.229 Y-11.864 E185.44725
G0 F3600 X49.229 Y-11.298
G1 F1800 X36.297 Y-24.23 E186.31405
G0 F3600 X35.732 Y-24.23
G1 F1800 X49.229 Y-10.733 E187.21872
G0 F3600 X49.229 Y-10.167
G1 F1800 X35.166 Y-24.23 E188.16133
G0 F3600 X34.6 Y-24.23
G1 F1800 X49.229 Y-9.601 E189.14188
G0 F3600 X49.229 Y-9.036
G1 F1800 X34.035 Y-24.23 E190.1603
G0 F3600 X33.469 Y-24.23
G1 F1800 X49.229 Y-8.47 E191.21665
G0 F3600 X49.229 Y-7.904
G1 F1800 X32.903 Y-24.23 E192.31094
G0 F3600 X32.338 Y-24.23
G1 F1800 X49.229 Y-7.339 E193.44311
G0 F3600 X49.229 Y-6.773
G1 F1800 X31.772 Y-24.23 E194.61321
G0 F3600 X31.206 Y-24.23
G1 F1800 X49.229 Y-6.207 E195.82125
G0 F3600 X49.229 Y-5.642
G1 F1800 X30.641 Y-24.23 E197.06716
G0 F3600 X30.075 Y-24.23
G1 F1800 X49.229 Y-5.076 E198.35101
G0 F3600 X49.229 Y-4.51
G1 F1800 X29.509 Y-24.23 E199.67279
G0 F3600 X28.944 Y-24.23
G1 F1800 X49.229 Y-3.944 E201.03248
G0 F3600 X49.229 Y-3.379
G1 F1800 X28.378 Y-24.23 E202.43007
G0 F3600 X27.812 Y-24.23
G1 F1800 X49.229 Y-2.813 E203.8656
G0 F3600 X49.229 Y-2.247
G1 F1800 X27.246 Y-24.23 E205.33907
G0 F3600 X26.681 Y-24.23
G1 F1800 X49.229 Y-1.682 E206.85041
G0 F3600 X49.229 Y-1.116
G1 F1800 X26.115 Y-24.23 E208.39969
G0 F3600 X25.549 Y-24.23
G1 F1800 X49.229 Y-.55 E209.9869
G0 F3600 X49.229 Y0.014
G1 F1800 X24.984 Y-24.23 E211.61195
G0 F3600 X24.418 Y-24.23
G1 F1800 X49.229 Y0.58 E213.27494
G0 F3600 X49.229 Y1.146
G1 F1800 X23.852 Y-24.23 E214.97587
G0 F3600 X23.287 Y-24.23
G1 F1800 X49.229 Y1.711 E216.71467
G0 F3600 X49.229 Y2.277
G1 F1800 X22.721 Y-24.23 E218.4914
G0 F3600 X22.155 Y-24.23
G1 F1800 X49.229 Y2.843 E220.30607
G0 F3600 X49.229 Y3.408
G1 F1800 X21.59 Y-24.23 E222.15862
G0 F3600 X21.024 Y-24.23
G1 F1800 X49.229 Y3.974 E224.0491
G0 F3600 X49.229 Y4.54
G1 F1800 X20.458 Y-24.23 E225.97752
G0 F3600 X19.893 Y-24.23
G1 F1800 X49.229 Y5.106 E227.94384
G0 F3600 X49.229 Y5.671
G1 F1800 X19.327 Y-24.23 E229.94807
G0 F3600 X18.761 Y-24.23
G1 F1800 X49.229 Y6.237 E231.99023
G0 F3600 X49.229 Y6.803
G1 F1800 X18.195 Y-24.23 E234.07033
G0 F3600 X17.63 Y-24.23
G1 F1800 X49.229 Y7.368 E236.1883
G0 F3600 X49.229 Y7.934
G1 F1800 X17.064 Y-24.23 E238.34421
G0 F3600 X16.498 Y-24.23
G1 F1800 X49.229 Y8.5 E240.53806
G0 F3600 X49.229 Y9.065
G1 F1800 X15.933 Y-24.23 E242.76978
G0 F3600 X15.367 Y-24.23
G1 F1800 X49.229 Y9.631 E245.03944
G0 F3600 X49.229 Y10.197
G1 F1800 X14.801 Y-24.23 E247.34703
G0 F3600 X14.236 Y-24.23
G1 F1800 X49.229 Y10.762 E249.6925
G0 F3600 X49.229 Y11.328
G1 F1800 X13.67 Y-24.23 E252.0759
G0 F3600 X13.104 Y-24.23
G1 F1800 X49.229 Y11.894 E254.49724
G0 F3600 X49.229 Y12.459
G1 F1800 X12.539 Y-24.23 E256.95645
G0 F3600 X11.973 Y-24.23
G1 F1800 X49.229 Y13.025 E259.4536
G0 F3600 X49.229 Y13.591
G1 F1800 X11.407 Y-24.23 E261.98868
G0 F3600 X10.842 Y-24.23
G1 F1800 X49.229 Y14.156 E264.56164
G0 F3600 X49.229 Y14.722
